X:57
T:Earl's Chair
M:C
L:1/8
K:D Major
FA|B2dA BAFA|B2dA BAFB|AFF2 DFF2|BAdA BAFA|!
B2dA BAFA|B2dA BAFB|A3B defd|edef d2:|!
Bd|e3f d2Bd|edef dBA2|e3f d2Bd|edef dBA2|!
e2df eBB2|aff2 defg|afbf afdf|edef d2:|!
